X:1
T: Bruce 2 (Alias Bruce Watson)
C:Bruce Shawyer
R:Reel
Q:232
K:Bm
M:4/4
L:1/16
|:"Bm"F2D2B,2D2 F4B4|F2D2B,2D2 F8|"A"E2C2A,2C2 E4A4|E2C2A,2C2 E8|
"Bm"F2D2B,2D2 F4F4|"A"E2C2A,2C2 E8|"G"D2C2B,2C2 D4C4|"Bm"B,4B,4 B,8:|
|:"Bm"F2B2d2f2 d2B2F2B2|F2B2d2f2 d8|"A"E2A2c2e2 c2A2E2A2|E2A2c2e2 c8|
"Bm"F2B2d2f2 d4B4|"A"E2A2c2e2 c4A4|"G"d2c2B2c2 d4c4|"Bm"B4B4 B8:|
